www/assets/icons/format_overline.svg

<svg xmlns="http://www.w3.org/2000/svg" width="24" height="24" viewBox="0 0 24 24" fill='currentColor'><path d="M19 3v2H5V3zm-7 4c-3.87 0-7 3.13-7 7s3.13 7 7 7 7-3.13 7-7-3.13-7-7-7m0 11.5c-2.49 0-4.5-2.01-4.5-4.5S9.51 9.5 12 9.5s4.5 2.01 4.5 4.5-2.01 4.5-4.5 4.5"/></svg>

<svg width="24" height="24" viewBox="0 0 24 24" xmlns="http://www.w3.org/2000/svg" fill='currentColor'><path d="M19 3V5H5V3H19ZM12 7C8.13 7 5 10.13 5 14C5 17.87 8.13 21 12 21C15.87 21 19 17.87 19 14C19 10.13 15.87 7 12 7ZM12 18.5C9.51 18.5 7.5 16.49 7.5 14C7.5 11.51 9.51 9.5 12 9.5C14.49 9.5 16.5 11.51 16.5 14C16.5 16.49 14.49 18.5 12 18.5Z"/></svg>
